packages/astro-components-stencil/src/icons/menu.svg

<svg xmlns="http://www.w3.org/2000/svg" viewBox="0 0 24 24"><g xmlns="http://www.w3.org/2000/svg" id="menu" fill-rule="nonzero">
            <path d="M4 18h16c.55 0 1-.45 1-1s-.45-1-1-1H4c-.55 0-1 .45-1 1s.45 1 1 1zm0-5h16c.55 0 1-.45 1-1s-.45-1-1-1H4c-.55 0-1 .45-1 1s.45 1 1 1zM3 7c0 .55.45 1 1 1h16c.55 0 1-.45 1-1s-.45-1-1-1H4c-.55 0-1 .45-1 1z"/>
        </g></svg>

<svg width="24" height="24" viewBox="0 0 24 24" fill="none" xmlns="http://www.w3.org/2000/svg">
<path fill-rule="evenodd" clip-rule="evenodd" d="M4 8C3.45 8 3 7.55 3 7C3 6.45 3.45 6 4 6H20C20.55 6 21 6.45 21 7C21 7.55 20.55 8 20 8H4ZM4 13H20C20.55 13 21 12.55 21 12C21 11.45 20.55 11 20 11H4C3.45 11 3 11.45 3 12C3 12.55 3.45 13 4 13ZM4 18H20C20.55 18 21 17.55 21 17C21 16.45 20.55 16 20 16H4C3.45 16 3 16.45 3 17C3 17.55 3.45 18 4 18Z" fill="black"/>
</svg>
